svg/color/pltron.svg

<svg width="40" height="40" viewBox="0 0 40 40" fill="none" xmlns="http://www.w3.org/2000/svg">
<g clip-path="url(#clip0_820_3820)">
<path d="M20 0C31.0457 0 40 8.9543 40 20C40 31.0457 31.0457 40 20 40C8.95431 40 7.90517e-06 31.0457 0 20C6.58765e-07 8.95431 8.95431 1.97595e-06 20 0Z" fill="#CFCFD0"/>
<path d="M26 6C30.4183 6 34 9.58172 34 14V26C34 30.4183 30.4183 34 26 34H14C9.58172 34 6 30.4183 6 26V14C6 9.58172 9.58172 6 14 6H26Z" fill="#101113"/>
<path d="M26.4498 24.75L20.0001 27.2659L13.5503 24.75L12.4792 26.6049L20.0001 29.5L27.5209 26.6049L26.4498 24.75ZM20.0001 10.5C18.0054 10.5 16.0924 11.2924 14.682 12.7028C13.2716 14.1132 12.4792 16.0262 12.4792 18.0208C12.4792 20.0155 13.2716 21.9284 14.682 23.3389C16.0924 24.7493 18.0054 25.5417 20.0001 25.5417C21.9947 25.5417 23.9077 24.7493 25.3181 23.3389C26.7285 21.9284 27.5209 20.0155 27.5209 18.0208C27.5209 16.0262 26.7285 14.1132 25.3181 12.7028C23.9077 11.2924 21.9947 10.5 20.0001 10.5ZM20.0001 23.2284C18.621 23.2284 17.2985 22.6806 16.3233 21.7055C15.3482 20.7303 14.8004 19.4078 14.8004 18.0288C14.8004 16.6497 15.3482 15.3272 16.3233 14.352C17.2985 13.3769 18.621 12.8291 20.0001 12.8291C21.3791 12.8291 22.7016 13.3769 23.6768 14.352C24.6519 15.3272 25.1997 16.6497 25.1997 18.0288C25.1997 19.4078 24.6519 20.7303 23.6768 21.7055C22.7016 22.6806 21.3791 23.2284 20.0001 23.2284Z" fill="white"/>
</g>
<defs>
<clipPath id="clip0_820_3820">
<rect width="40" height="40" fill="white"/>
</clipPath>
</defs>
</svg>

<svg xmlns="http://www.w3.org/2000/svg" width="40" height="40" fill="none" viewBox="0 0 40 40"><g clip-path="url(#pltron_svg-a)"><path fill="#CFCFD0" d="M20 0c11.046 0 20 8.954 20 20s-8.954 20-20 20S0 31.046 0 20 8.954 0 20 0"/><path fill="#101113" d="M26 6a8 8 0 0 1 8 8v12a8 8 0 0 1-8 8H14a8 8 0 0 1-8-8V14a8 8 0 0 1 8-8z"/><path fill="#fff" d="M26.45 24.75 20 27.266l-6.45-2.516-1.07 1.855L20 29.5l7.52-2.895zM20 10.5a7.521 7.521 0 1 0 0 15.042A7.521 7.521 0 0 0 20 10.5m0 12.728a5.2 5.2 0 1 1 0-10.4 5.2 5.2 0 0 1 0 10.4"/></g><defs><clipPath id="pltron_svg-a"><path fill="#fff" d="M0 0h40v40H0z"/></clipPath></defs></svg>
